Dominus_Dark_Funeral/scalable/apps/eclipse.svg

<?xml version="1.0" encoding="UTF-8" standalone="no"?><svg xmlns:dc="http://purl.org/dc/elements/1.1/" xmlns:cc="http://creativecommons.org/ns#" xmlns:rdf="http://www.w3.org/1999/02/22-rdf-syntax-ns#" xmlns="http://www.w3.org/2000/svg" xmlns:xlink="http://www.w3.org/1999/xlink" width="48" height="48" viewBox="0 0 12.7 12.7"><metadata><rdf:RDF><cc:Work><dc:format>image/svg+xml</dc:format><dc:type rdf:resource="http://purl.org/dc/dcmitype/StillImage"/><dc:title/></cc:Work></rdf:RDF></metadata><defs><linearGradient id="f"><stop offset="0" stop-color="#fff"/><stop offset="1" stop-color="#fff" stop-opacity=".051"/></linearGradient><linearGradient id="e"><stop offset="0" stop-color="#1a1a1a"/><stop offset="1" stop-opacity=".03"/></linearGradient><linearGradient id="a"><stop offset="0" stop-color="#fff" stop-opacity=".64"/><stop offset=".5" stop-color="#fff" stop-opacity=".21"/><stop offset="1" stop-color="#424289" stop-opacity=".07"/></linearGradient><linearGradient id="b"><stop offset="0" stop-color="#c98cbb"/><stop offset="1" stop-color="#a9b7da"/></linearGradient><linearGradient id="c"><stop offset="0" stop-color="#04034e"/><stop offset="1" stop-color="#c98cbb"/></linearGradient><linearGradient id="d"><stop offset="0" stop-color="#214478"/><stop offset="1" stop-color="#7575b9"/></linearGradient><linearGradient xlink:href="#b" id="h" gradientUnits="userSpaceOnUse" gradientTransform="matrix(.20849 0 0 .27348 -7.926 -6.84)" x1="50.38" y1="47.09" x2="95.4" y2="46.78"/><linearGradient xlink:href="#d" id="g" gradientUnits="userSpaceOnUse" gradientTransform="matrix(.32244 0 0 .32622 -10.611 -9.48)" x1="68.21" y1="63.93" x2="37.32" y2="30"/><radialGradient xlink:href="#f" id="l" cx="2.599" cy="2.827" fx="2.599" fy="2.827" r="5.347" gradientTransform="matrix(1.19497 .66468 -.56947 1.02381 1.103 -2.399)" gradientUnits="userSpaceOnUse"/><linearGradient xlink:href="#b" id="k" gradientUnits="userSpaceOnUse" gradientTransform="matrix(.20849 0 0 .27348 -7.926 -6.84)" x1="50.38" y1="47.09" x2="95.4" y2="46.78"/><linearGradient xlink:href="#b" id="j" gradientUnits="userSpaceOnUse" gradientTransform="matrix(.20849 0 0 .27348 -7.926 -6.84)" x1="50.38" y1="47.09" x2="95.4" y2="46.78"/><linearGradient xlink:href="#b" id="i" gradientUnits="userSpaceOnUse" gradientTransform="matrix(.20849 0 0 .27348 -7.926 -6.84)" x1="50.38" y1="47.09" x2="95.4" y2="46.78"/></defs><path d="M6.82.072a6.75 6.75 0 0 0-.47.008v.01c-.77 0-1.465.072-2.081.217a5.896 5.896 0 0 0-.865.272A4.589 4.589 0 0 0 2.66.96a3.67 3.67 0 0 0-.297.216 3.67 3.67 0 0 0-.274.244 3.67 3.67 0 0 0-.248.27 3.67 3.67 0 0 0-.22.294 3.67 3.67 0 0 0-.189.314 3.67 3.67 0 0 0-.157.331 3.67 3.67 0 0 0-.123.346 3.67 3.67 0 0 0-.089.356 3.67 3.67 0 0 0-.052.363 3.67 3.67 0 0 0-.015.367A3.67 3.67 0 0 0 1 4.21c0 .477.096.995.248 1.515.152.52.359 1.041.58 1.526.445.97.947 1.793 1.182 2.158.54.85 1.13 1.61 1.65 2.16.34.35.642.608.92.778.277.17.53.252.77.252s.492-.082.77-.252c.277-.17.58-.428.92-.778.52-.55 1.11-1.31 1.65-2.15.235-.37.735-1.195 1.176-2.166.22-.486.427-1.008.578-1.528.15-.52.246-1.038.246-1.516a4.63 4.63 0 0 0-.106-1.007 3.739 3.739 0 0 0-.314-.884 3.436 3.436 0 0 0-.517-.751A3.688 3.688 0 0 0 10.04.96a6.75 6.75 0 0 0-.602-.305 6.75 6.75 0 0 0-.63-.243 6.75 6.75 0 0 0-.65-.18A6.75 6.75 0 0 0 7.493.12 6.75 6.75 0 0 0 6.82.072z" fill="url(#g)"/><path d="M11.605 4.722c.012-.093.041-.19.046-.282H2.742v.282z" fill="url(#h)"/><path d="M11.473 5.539c.024-.092.023-.176.043-.267H2.61v.267z" fill="url(#i)"/><path d="M11.197 6.37c.035-.095.074-.187.106-.283H2.67v.283z" fill="url(#j)"/><path d="M10.888 7.185c.04-.09.068-.19.107-.282H2.73v.282z" fill="url(#k)"/><path d="M6.35.1C4.81.1 3.57.39 2.66.97A3.67 3.67 0 0 0 1 4.22c0 1.91 1.54 4.47 2.01 5.2.54.85 1.13 1.61 1.65 2.16.68.7 1.21 1.03 1.69 1.03s1.01-.33 1.69-1.03c.52-.55 1.11-1.31 1.65-2.15.47-.74 2-3.3 2-5.21 0-1.42-.57-2.54-1.65-3.25A6.75 6.75 0 0 0 6.35.09z" opacity=".35" fill="url(#l)"/><path d="M6.35.1C4.81.1 3.57.38 2.66.96A3.67 3.67 0 0 0 1 4.22c0 1.91 1.54 4.47 2.01 5.2.54.85 1.13 1.61 1.65 2.16.68.7 1.21 1.03 1.69 1.03s1.01-.33 1.69-1.03c.52-.55 1.11-1.31 1.65-2.15.47-.74 2-3.3 2-5.21 0-1.42-.57-2.54-1.65-3.25A6.75 6.75 0 0 0 6.35.1zm0 .26c1.48 0 2.67.28 3.53.84a3.51 3.51 0 0 1 1.59 3.11c0 1.83-1.47 4.28-1.92 4.99a13.8 13.8 0 0 1-1.59 2.06c-.64.67-1.15.98-1.61.98-.46 0-.97-.3-1.61-.98A13.8 13.8 0 0 1 3.15 9.3c-.45-.71-1.92-3.16-1.92-5 0-1.36.55-2.44 1.59-3.11A6.46 6.46 0 0 1 6.35.36z" opacity=".35"/></svg>

<?xml version="1.0" encoding="UTF-8" standalone="no"?>
<svg
   xmlns:dc="http://purl.org/dc/elements/1.1/"
   xmlns:cc="http://creativecommons.org/ns#"
   xmlns:rdf="http://www.w3.org/1999/02/22-rdf-syntax-ns#"
   xmlns:svg="http://www.w3.org/2000/svg"
   xmlns="http://www.w3.org/2000/svg"
   xmlns:xlink="http://www.w3.org/1999/xlink"
   xmlns:sodipodi="http://sodipodi.sourceforge.net/DTD/sodipodi-0.dtd"
   xmlns:inkscape="http://www.inkscape.org/namespaces/inkscape"
   width="48"
   height="48"
   viewBox="0 0 12.7 12.7"
   version="1.1"
   id="svg58"
   sodipodi:docname="eclipse.svg"
   inkscape:version="0.92.4 (5da689c313, 2019-01-14)">
  <sodipodi:namedview
     pagecolor="#ffffff"
     bordercolor="#666666"
     borderopacity="1"
     objecttolerance="10"
     gridtolerance="10"
     guidetolerance="10"
     inkscape:pageopacity="0"
     inkscape:pageshadow="2"
     inkscape:window-width="1112"
     inkscape:window-height="480"
     id="namedview60"
     showgrid="false"
     inkscape:zoom="4.9166667"
     inkscape:cx="2.1355932"
     inkscape:cy="24"
     inkscape:window-x="0"
     inkscape:window-y="25"
     inkscape:window-maximized="0"
     inkscape:current-layer="svg58" />
  <metadata
     id="metadata2">
    <rdf:RDF>
      <cc:Work>
        <dc:format>image/svg+xml</dc:format>
        <dc:type
           rdf:resource="http://purl.org/dc/dcmitype/StillImage" />
        <dc:title></dc:title>
      </cc:Work>
    </rdf:RDF>
  </metadata>
  <defs
     id="defs42">
    <linearGradient
       id="f">
      <stop
         offset="0"
         stop-color="#fff"
         id="stop4" />
      <stop
         offset="1"
         stop-color="#fff"
         stop-opacity=".051"
         id="stop6" />
    </linearGradient>
    <linearGradient
       id="e">
      <stop
         offset="0"
         stop-color="#1a1a1a"
         id="stop9" />
      <stop
         offset="1"
         stop-opacity=".03"
         id="stop11" />
    </linearGradient>
    <linearGradient
       id="a">
      <stop
         offset="0"
         stop-color="#fff"
         stop-opacity=".64"
         id="stop14" />
      <stop
         offset=".5"
         stop-color="#fff"
         stop-opacity=".21"
         id="stop16" />
      <stop
         offset="1"
         stop-color="#424289"
         stop-opacity=".07"
         id="stop18" />
    </linearGradient>
    <linearGradient
       id="b">
      <stop
         offset="0"
         stop-color="#c98cbb"
         id="stop21" />
      <stop
         offset="1"
         stop-color="#a9b7da"
         id="stop23" />
    </linearGradient>
    <linearGradient
       id="c">
      <stop
         offset="0"
         stop-color="#04034e"
         id="stop26" />
      <stop
         offset="1"
         stop-color="#c98cbb"
         id="stop28" />
    </linearGradient>
    <linearGradient
       id="d">
      <stop
         offset="0"
         stop-color="#214478"
         id="stop31" />
      <stop
         offset="1"
         stop-color="#7575b9"
         id="stop33" />
    </linearGradient>
    <linearGradient
       xlink:href="#b"
       id="h"
       gradientUnits="userSpaceOnUse"
       gradientTransform="matrix(0.20849,0,0,0.27348,-7.926,-6.84)"
       x1="50.38"
       y1="47.09"
       x2="95.4"
       y2="46.78" />
    <linearGradient
       xlink:href="#d"
       id="g"
       gradientUnits="userSpaceOnUse"
       gradientTransform="matrix(0.32244,0,0,0.32622,-10.611,-9.48)"
       x1="68.21"
       y1="63.93"
       x2="37.32"
       y2="30" />
    <radialGradient
       xlink:href="#f"
       id="l"
       cx="2.599"
       cy="2.827"
       fx="2.599"
       fy="2.827"
       r="5.347"
       gradientTransform="matrix(1.19497,0.66468,-0.56947,1.02381,1.103,-2.399)"
       gradientUnits="userSpaceOnUse" />
    <linearGradient
       xlink:href="#b"
       id="k"
       gradientUnits="userSpaceOnUse"
       gradientTransform="matrix(0.20849,0,0,0.27348,-7.926,-6.84)"
       x1="50.38"
       y1="47.09"
       x2="95.4"
       y2="46.78" />
    <linearGradient
       xlink:href="#b"
       id="j"
       gradientUnits="userSpaceOnUse"
       gradientTransform="matrix(0.20849,0,0,0.27348,-7.926,-6.84)"
       x1="50.38"
       y1="47.09"
       x2="95.4"
       y2="46.78" />
    <linearGradient
       xlink:href="#b"
       id="i"
       gradientUnits="userSpaceOnUse"
       gradientTransform="matrix(0.20849,0,0,0.27348,-7.926,-6.84)"
       x1="50.38"
       y1="47.09"
       x2="95.4"
       y2="46.78" />
  </defs>
  <path
     d="M 6.82,0.072 A 6.75,6.75 0 0 0 6.35,0.08 V 0.09 C 5.58,0.09 4.885,0.162 4.269,0.307 A 5.896,5.896 0 0 0 3.404,0.579 4.589,4.589 0 0 0 2.66,0.96 3.67,3.67 0 0 0 2.363,1.176 3.67,3.67 0 0 0 2.089,1.42 3.67,3.67 0 0 0 1.841,1.69 3.67,3.67 0 0 0 1.621,1.984 3.67,3.67 0 0 0 1.432,2.298 3.67,3.67 0 0 0 1.275,2.629 3.67,3.67 0 0 0 1.152,2.975 3.67,3.67 0 0 0 1.063,3.331 3.67,3.67 0 0 0 1.011,3.694 3.67,3.67 0 0 0 0.996,4.061 3.67,3.67 0 0 0 1,4.21 c 0,0.477 0.096,0.995 0.248,1.515 0.152,0.52 0.359,1.041 0.58,1.526 0.445,0.97 0.947,1.793 1.182,2.158 0.54,0.85 1.13,1.61 1.65,2.16 0.34,0.35 0.642,0.608 0.92,0.778 0.277,0.17 0.53,0.252 0.77,0.252 0.24,0 0.492,-0.082 0.77,-0.252 0.277,-0.17 0.58,-0.428 0.92,-0.778 0.52,-0.55 1.11,-1.31 1.65,-2.15 0.235,-0.37 0.735,-1.195 1.176,-2.166 0.22,-0.486 0.427,-1.008 0.578,-1.528 0.15,-0.52 0.246,-1.038 0.246,-1.516 A 4.63,4.63 0 0 0 11.584,3.202 3.739,3.739 0 0 0 11.27,2.318 3.436,3.436 0 0 0 10.753,1.567 3.688,3.688 0 0 0 10.04,0.96 6.75,6.75 0 0 0 9.438,0.655 6.75,6.75 0 0 0 8.808,0.412 6.75,6.75 0 0 0 8.158,0.232 6.75,6.75 0 0 0 7.493,0.12 6.75,6.75 0 0 0 6.82,0.072 Z"
     id="path44"
     style="fill:url(#g)"
     inkscape:connector-curvature="0" />
  <path
     d="M 11.605,4.722 C 11.617,4.629 11.646,4.532 11.651,4.44 H 2.742 v 0.282 z"
     id="path46"
     style="fill:url(#h)"
     inkscape:connector-curvature="0" />
  <path
     d="M 11.473,5.539 C 11.497,5.447 11.496,5.363 11.516,5.272 H 2.61 v 0.267 z"
     id="path48"
     style="fill:url(#i)"
     inkscape:connector-curvature="0" />
  <path
     d="M 11.197,6.37 C 11.232,6.275 11.271,6.183 11.303,6.087 H 2.67 V 6.37 Z"
     id="path50"
     style="fill:url(#j)"
     inkscape:connector-curvature="0" />
  <path
     d="m 10.888,7.185 c 0.04,-0.09 0.068,-0.19 0.107,-0.282 H 2.73 v 0.282 z"
     id="path52"
     style="fill:url(#k)"
     inkscape:connector-curvature="0" />
  <path
     d="M 6.35,0.1 C 4.81,0.1 3.57,0.39 2.66,0.97 A 3.67,3.67 0 0 0 1,4.22 c 0,1.91 1.54,4.47 2.01,5.2 0.54,0.85 1.13,1.61 1.65,2.16 0.68,0.7 1.21,1.03 1.69,1.03 0.48,0 1.01,-0.33 1.69,-1.03 0.52,-0.55 1.11,-1.31 1.65,-2.15 0.47,-0.74 2,-3.3 2,-5.21 0,-1.42 -0.57,-2.54 -1.65,-3.25 A 6.75,6.75 0 0 0 6.35,0.09 Z"
     id="path54"
     style="opacity:0.35;fill:url(#l)"
     inkscape:connector-curvature="0" />
  <path
     d="M 6.35,0.1 C 4.81,0.1 3.57,0.38 2.66,0.96 A 3.67,3.67 0 0 0 1,4.22 c 0,1.91 1.54,4.47 2.01,5.2 0.54,0.85 1.13,1.61 1.65,2.16 0.68,0.7 1.21,1.03 1.69,1.03 0.48,0 1.01,-0.33 1.69,-1.03 0.52,-0.55 1.11,-1.31 1.65,-2.15 0.47,-0.74 2,-3.3 2,-5.21 0,-1.42 -0.57,-2.54 -1.65,-3.25 A 6.75,6.75 0 0 0 6.35,0.1 Z m 0,0.26 c 1.48,0 2.67,0.28 3.53,0.84 a 3.51,3.51 0 0 1 1.59,3.11 C 11.47,6.14 10,8.59 9.55,9.3 a 13.8,13.8 0 0 1 -1.59,2.06 c -0.64,0.67 -1.15,0.98 -1.61,0.98 -0.46,0 -0.97,-0.3 -1.61,-0.98 A 13.8,13.8 0 0 1 3.15,9.3 C 2.7,8.59 1.23,6.14 1.23,4.3 1.23,2.94 1.78,1.86 2.82,1.19 A 6.46,6.46 0 0 1 6.35,0.36 Z"
     id="path56"
     inkscape:connector-curvature="0"
     style="opacity:0.35" />
</svg>
